modules/hawcons-filled/icons/icon-31-three-fingers-swipe-down.svg

<?xml version="1.0" encoding="UTF-8" standalone="no"?>
<svg width="32px" height="32px" viewBox="0 0 32 32" version="1.1" xmlns="http://www.w3.org/2000/svg" xmlns:xlink="http://www.w3.org/1999/xlink" xmlns:sketch="http://www.bohemiancoding.com/sketch/ns">
    <!-- Generator: Sketch 3.0.3 (7891) - http://www.bohemiancoding.com/sketch -->
    <title>icon 31 three fingers swipe down</title>
    <desc>Created with Sketch.</desc>
    <defs></defs>
    <g id="Page-1" stroke="none" stroke-width="1" fill="none" fill-rule="evenodd" sketch:type="MSPage">
        <g id="icon-31-three-fingers-swipe-down" sketch:type="MSArtboardGroup" fill="#929292">
            <path d="M19.1151466,24.049999 L19.1151466,15 L19.1151466,13.5082011 L19.1151466,4.49089813 C19.1151466,3.66749783 18.4493494,3 17.6151466,3 C16.7867195,3 16.1151466,3.67622006 16.1151466,4.49089813 L16.1151466,13.4325233 L16.1151466,16 L15.1151466,16 L15.1151466,13.5 L15.1151466,6.50863659 C15.1151466,5.67543961 14.4493494,5 13.6151466,5 C12.7867195,5 12.1151466,5.66642015 12.1151466,6.50863659 L12.1151466,16.7983451 C10.056747,14.5979243 7.34677642,12.1791206 6.23617935,13.2957153 C5.14900956,14.3887562 7.95050863,17.4007216 11.8625221,23.9830936 C13.6251425,26.9488875 15.8554315,28.9995418 19.6151466,29 C23.7572825,29 27.1151466,25.6421358 27.1151466,21.5 L27.1151466,18.2468012 L27.1151466,13.5063976 C27.1151466,12.6744372 26.4493494,12 25.6151466,12 C24.7867195,12 24.1151466,12.6764628 24.1151466,13.5063976 L24.1151466,15.7497253 L24.1151466,16 L23.1151466,16 L23.1151466,13.6781559 L23.1151466,6.4912653 C23.1151466,5.66766222 22.4493494,5 21.6151466,5 C20.7867195,5 20.1151466,5.66254437 20.1151466,6.4912653 L20.1151466,13.5082011 L20.1151466,15 L20.1151466,15 L20.1151466,24.049999 L23.3651466,20.799999 L24.1151466,21.549999 L19.6151466,26.049999 L15.1151466,21.549999 L15.8651466,20.799999 L19.1151466,24.049999 L19.1151466,24.049999 Z" id="three-fingers-swipe-down" sketch:type="MSShapeGroup"></path>
        </g>
    </g>
</svg>

<svg width="32" height="32" xmlns="http://www.w3.org/2000/svg"><path d="M19.115 24.05V4.491a1.501 1.501 0 0 0-3 0V16h-1V6.509a1.5 1.5 0 1 0-3 0v10.29c-2.058-2.201-4.768-4.62-5.879-3.503-1.087 1.093 1.715 4.105 5.627 10.687C13.625 26.95 15.855 29 19.615 29a7.5 7.5 0 0 0 7.5-7.5v-7.993a1.5 1.5 0 1 0-3 0V16h-1V6.491c0-.823-.666-1.491-1.5-1.491-.828 0-1.5.663-1.5 1.491V24.05l3.25-3.25.75.75-4.5 4.5-4.5-4.5.75-.75 3.25 3.25z" fill="#929292" fill-rule="evenodd"/></svg>
